source/svgs/bowtie/uE9EF-fast-backward.svg

<svg xmlns="http://www.w3.org/2000/svg" viewBox="0 0 448 448" enable-background="new 0 0 448 448"><path d="M448 384l-213.328-160 213.328-160v320zm-160-160l128 96v-192l-128 96zm-64 160l-213.344-160 213.344-160v320zm-160-160l128 96v-192l-128 96z"/></svg>

<svg xmlns="http://www.w3.org/2000/svg" viewBox="0 0 448 448"><path d="M448 384L234.672 224 448 64v320zM288 224l128 96V128l-128 96zm-64 160L10.656 224 224 64v320zM64 224l128 96V128L64 224z"/></svg>
